images/x-shadow-16.svg

<svg viewBox="0 0 12 12" xmlns="http://www.w3.org/2000/svg" xmlns:xlink="http://www.w3.org/1999/xlink"><filter id="a" name="shadow_blur_2"><feGaussianBlur in="SourceGraphic" stdDeviation=".5"/></filter><g filter="url(#a)" opacity=".5"><path d="m10.6 2.6-.7-.7-3.9 3.89-3.9-3.89-.7.7 3.89 3.9-3.89 3.9.7.7 3.9-3.89 3.9 3.89.7-.7-3.89-3.9z"/></g><path d="m10.6 2.1-.7-.7-3.9 3.89-3.9-3.89-.7.7 3.89 3.9-3.89 3.9.7.7 3.9-3.89 3.9 3.89.7-.7-3.89-3.9z" fill="#fff"/></svg>

<svg xmlns="http://www.w3.org/2000/svg" viewBox="0 0 12 12"><filter id="a"><feGaussianBlur in="SourceGraphic" stdDeviation=".5"/></filter><g filter="url(#a)" opacity=".5"><path d="m10.6 2.6-.7-.7L6 5.79 2.1 1.9l-.7.7 3.89 3.9-3.89 3.9.7.7L6 7.21l3.9 3.89.7-.7-3.89-3.9z"/></g><path fill="#fff" d="m10.6 2.1-.7-.7L6 5.29 2.1 1.4l-.7.7L5.29 6 1.4 9.9l.7.7L6 6.71l3.9 3.89.7-.7L6.71 6z"/></svg>
